Obsidian-SemiLight/actions/24s/draw-cuboid.svg

<svg viewBox="0 0 24 24" xmlns="http://www.w3.org/2000/svg"><g fill="#4d4d4d"><path d="m12 1.4121094c-.7415.4706-.007-.0000188-.78125.4882812l-8.21875 5.46875v1.21875 7.5937504.40625c1.14882.7517.22209.1443.75.5l7.34375 4.90625c.89535.5962.008-.00005.90625.59375 8.02331-5.3242 6.05377-4.0138 8.375-5.5625.63161-.4616.11719-.09495.625-.46875v-.34375-.03125-7.5937504-1.21875c-2.3238-1.5467-.33991-.2266-.5625-.375l-7.65625-5.09375-.40625-.25c-.28276-.182 1.22337.7908188-.375-.2382812zm-.5 1.5195312v7.7500004l-.0625.09375-.21875.125-7.21875 4.8125v-7.7812504zm1 0 7.5 5v7.6250004l-7.5-5zm-.375 8.5937504 7.3125 4.875-7.4375 4.96875-7.34375-4.875 7.125-4.75z"/><path d="m11.582031 2.875c-.01267 0-1.7493746 1.1472281-3.8593748 2.5488281l-3.8359374 2.5488281v3.9570318c0 2.1774.0112906 3.958984.0253906 3.958984.01408 0 1.750785-1.148535 3.859375-2.552734l3.8339846-2.552735v-3.955078c0-2.1748-.010738-3.953125-.023438-3.953125z" fill-opacity=".2"/><path d="m12.089844 11.394531c-.11473.0047-7.6829721 5.111297-7.6386721 5.154297.02192.0211 1.7215437 1.164563 3.7773437 2.539063 2.0558004 1.3745 3.7494704 2.492422 3.7636724 2.482421.64001-.414799 7.602375-5.125437 7.609374-5.148437.01503-.0498-7.427418-5.027344-7.511718-5.027344z" fill-opacity=".4"/><path d="m12.427734 2.8125c-.0126 0-.024157 1.751125-.023437 3.890625l.001953 3.888672 3.832031 2.564453c2.10711 1.41 3.835797 2.566406 3.841797 2.566406.0064.0017.011719-1.752737.011719-3.898437v-3.9003909l-3.820313-2.5566406c-2.101505-1.4055-3.83115-2.5546875-3.84375-2.5546875z" fill-opacity=".6"/></g></svg>

<svg xmlns="http://www.w3.org/2000/svg" viewBox="0 0 24 24">
  <defs id="defs3051">
    <style type="text/css" id="current-color-scheme">
      .ColorScheme-Text {
        color:#4d4d4d;
      }
      </style>
  </defs>
 <path 
     style="fill:currentColor;fill-opacity:1;stroke:none" 
     d="M 12 1.4121094 C 11.2585 1.8827094 11.993 1.4120906 11.21875 1.9003906 L 3 7.3691406 L 3 8.5878906 L 3 16.181641 L 3 16.587891 C 4.14882 17.339591 3.22209 16.732191 3.75 17.087891 L 11.09375 21.994141 C 11.9891 22.590341 11.10175 21.994091 12 22.587891 C 20.02331 17.263691 18.05377 18.574091 20.375 17.025391 C 21.00661 16.563791 20.49219 16.930441 21 16.556641 L 21 16.212891 L 21 16.181641 L 21 8.5878906 L 21 7.3691406 C 18.6762 5.8224406 20.66009 7.1425406 20.4375 6.9941406 L 12.78125 1.9003906 L 12.375 1.6503906 C 12.09224 1.4683906 13.59837 2.4412094 12 1.4121094 z M 11.5 2.9316406 L 11.5 10.681641 L 11.4375 10.775391 L 11.21875 10.900391 L 4 15.712891 L 4 7.9316406 L 11.5 2.9316406 z M 12.5 2.9316406 L 20 7.9316406 L 20 15.556641 L 12.5 10.556641 L 12.5 2.9316406 z M 12.125 11.525391 L 19.4375 16.400391 L 12 21.369141 L 4.65625 16.494141 L 11.78125 11.744141 L 12.125 11.525391 z "
     class="ColorScheme-Text"
     />
 <path 
     style="fill:currentColor;fill-opacity:0.2;stroke:none" 
     d="M 11.582031 2.875 C 11.569361 2.875 9.8326564 4.0222281 7.7226562 5.4238281 L 3.8867188 7.9726562 L 3.8867188 11.929688 C 3.8867188 14.107088 3.8980094 15.888672 3.9121094 15.888672 C 3.9261894 15.888672 5.6628944 14.740137 7.7714844 13.335938 L 11.605469 10.783203 L 11.605469 6.828125 C 11.605469 4.653325 11.594731 2.875 11.582031 2.875 z "
     class="ColorScheme-Text"
     />
 <path 
     style="fill:currentColor;fill-opacity:0.4;stroke:none" 
     d="M 12.089844 11.394531 C 11.975114 11.399231 4.4068719 16.505828 4.4511719 16.548828 C 4.4730919 16.569928 6.1727156 17.713391 8.2285156 19.087891 C 10.284316 20.462391 11.977986 21.580313 11.992188 21.570312 C 12.632198 21.155513 19.594563 16.444875 19.601562 16.421875 C 19.616592 16.372075 12.174144 11.394531 12.089844 11.394531 z "
     class="ColorScheme-Text"
     />
 <path 
     style="fill:currentColor;fill-opacity:0.6;stroke:none" 
     d="M 12.427734 2.8125 C 12.415134 2.8125 12.403577 4.563625 12.404297 6.703125 L 12.40625 10.591797 L 16.238281 13.15625 C 18.345391 14.56625 20.074078 15.722656 20.080078 15.722656 C 20.086478 15.724356 20.091797 13.969919 20.091797 11.824219 L 20.091797 7.9238281 L 16.271484 5.3671875 C 14.169979 3.9616875 12.440334 2.8125 12.427734 2.8125 z "
     class="ColorScheme-Text"
     />
</svg>
